src/amo/components/CategoryIcon/img/search-tools.svg

<svg xmlns="http://www.w3.org/2000/svg" width="64" height="64" viewBox="0 0 64 64">
  <g class="two" fill="#0F1126">
    <path d="M62.7783802,59.2972391 C63.7396708,60.2585297 63.7396708,61.8170896 62.7783802,62.7783802 C61.8170896,63.7396708 60.2585297,63.7396708 59.2972391,62.7783802 L47.2815937,50.7627348 C46.3203032,49.8014443 46.3203032,48.2428843 47.2815937,47.2815937 C48.2428843,46.3203032 49.8014443,46.3203032 50.7627348,47.2815937 L62.7783802,59.2972391 Z M26.9934811,53.4863103 C12.3618955,53.4863103 0.50065189,41.6250666 0.50065189,26.9934811 C0.50065189,12.3618955 12.3618955,0.50065189 26.9934811,0.50065189 C41.6250666,0.50065189 53.4863103,12.3618955 53.4863103,26.9934811 C53.4863103,41.6250666 41.6250666,53.4863103 26.9934811,53.4863103 Z M26.9934811,48.5632334 C38.9061263,48.5632334 48.5632334,38.9061263 48.5632334,26.9934811 C48.5632334,15.0808359 38.9061263,5.42372881 26.9934811,5.42372881 C15.0808359,5.42372881 5.42372881,15.0808359 5.42372881,26.9934811 C5.42372881,38.9061263 15.0808359,48.5632334 26.9934811,48.5632334 Z"/>
  </g>
  <g class="one" fill="#0F1126">
    <path d="M12.6621316,23.3067104 C14.0502985,18.1242206 18.1242206,14.0502985 23.3067104,12.6621316 C23.9632992,12.4862596 24.3529971,11.8114169 24.1771251,11.1548281 C24.0012531,10.4982393 23.3264103,10.1085414 22.6698216,10.2844133 C16.637709,11.9001578 11.9001578,16.637709 10.2844133,22.6698216 C10.1085414,23.3264103 10.4982393,24.0012531 11.1548281,24.1771251 C11.8114169,24.3529971 12.4862596,23.9632992 12.6621316,23.3067104 Z"/>
  </g>
</svg>

<svg xmlns="http://www.w3.org/2000/svg" width="64" height="64"><path d="M62.778 59.297a2.462 2.462 0 1 1-3.48 3.481L47.281 50.763a2.462 2.462 0 0 1 3.48-3.481l12.016 12.015Zm-35.785-5.81C12.362 53.486.501 41.624.501 26.992.5 12.362 12.36.501 26.993.501c14.632 0 26.493 11.86 26.493 26.492 0 14.632-11.86 26.493-26.493 26.493Zm0-4.924c11.913 0 21.57-9.657 21.57-21.57 0-11.912-9.657-21.57-21.57-21.57-11.912 0-21.57 9.658-21.57 21.57 0 11.913 9.658 21.57 21.57 21.57Z" class="two" fill="#0F1126"/><path d="M12.662 23.307a15.083 15.083 0 0 1 10.645-10.645 1.23 1.23 0 1 0-.637-2.378A17.545 17.545 0 0 0 10.284 22.67a1.23 1.23 0 0 0 2.378.637Z" class="one" fill="#0F1126"/></svg>
